X: 10673
T: FLEURS CASTLE
O: Country dance.
%R: reel
B: W. Hamilton "Universal Tune-Book" Vol. 1 Glasgow 1844 p.67 #3
S: http://imslp.org/wiki/Hamilton's_Universal_Tune-Book_(Various)
Z: 2016 John Chambers <jc:trillian.mit.edu>
M: 2/4
L: 1/16
K: Bb
% - - - - - - - - - - - - - - - - - - - - - - - - -
fe !segno!|:\
"_sf"dfed cedc | d2B2B2 gf | !p!e2ed c2cB | ABcA F2fe |\
"_sf"dfed cedc | d2B2B2 ba | g2gf =efge | f2F2F2 |]
f2 !p!|\
b2f2d2f2 | e2c2A2F2 | "^cres."B2d2f2b2 | gbc'a fgaf !p!|\
b2f2d2f2 | e2c2A2F2 | BcdB fgaf | b2[b2B2][b2B2] f=e |
!ff!f2B2b2B2 | c'bag fede | f2B2b2ab | abc'a f2f=e |\
f2B2b2B2 | c'bag fedc | dfed cgeA | Bcde fgab !segno!|]
% - - - - - - - - - - - - - - - - - - - - - - - - -

%%sep 1 1 500
%%sep 1 1 500

